app/dist/common/images/zhejiang-zheneng-electric-power-coltd.svg

<svg height="18" viewBox="0 0 18 18" width="18" xmlns="http://www.w3.org/2000/svg"><path d="m0 0h18v18h-18z" fill="#f0f3fa"/><path d="m9.8 5h.33l-2.6 3h-.73zm-1.05 0h.46l-2.61 3h-.86l3-3zm-1.08 0h.6l-2.6 3h-.67v-3h1.42l-1.15 1.34 1.33-1.34h.75l-2.08 2.4zm.2 3 3-3h.36l-2.68 3h-.67zm1.2 0h.45l2.69-3h-.05l-3.1 3zm3.93-2.73-2.82 2.73h2.82z" fill="#05539e"/><path d="m7.53 8-2.26 2.61 2.6-2.61h.69l-2.68 3h-.88v-3h.68l-.41.47.47-.47h.86l-1.33 1.54 1.53-1.54h.72zm-1.56 3h.86l2.7-3h-.46zm4.21-3-3.1 3h5.92v-3z" fill="#ea4608"/><path d="m5.88 11h-.88v2h8v-2h-5.92l-1.81 1.75 1.56-1.75h-.86l-.7.68.6-.68z" fill="#59575a"/></svg>

<!-- by TradingView --><svg width="18" height="18" viewBox="0 0 18 18" xmlns="http://www.w3.org/2000/svg"><path fill="#F0F3FA" d="M0 0h18v18H0z"/><path d="M9.8 5h.33l-2.6 3H6.8l3-3ZM8.75 5h.46L6.6 8h-.86l3-3ZM7.67 5h.6l-2.6 3H5V5h1.42L5.27 6.34 6.6 5h.75L5.27 7.4 7.67 5Zm.2 3 3-3h.36L8.55 8h-.67Zm1.2 0h.45l2.69-3h-.05l-3.1 3ZM13 5.27 10.18 8H13V5.27Z" fill="#05539E"/><path d="m7.53 8-2.26 2.61L7.87 8h.69l-2.68 3H5V8h.68l-.41.47.47-.47h.86L5.27 9.54 6.8 8h.72Zm-1.56 3h.86l2.7-3h-.46l-3.1 3Zm4.21-3-3.1 3H13V8h-2.82Z" fill="#EA4608"/><path d="M5.88 11H5v2h8v-2H7.08l-1.81 1.75L6.83 11h-.86l-.7.68.6-.68Z" fill="#59575A"/></svg>
